X:3128070
T:Hot Punch
S:Doug Protsik, recording made at Maine Fiddle Camp, 1998.
S:Maine Country Dance Orchestra, Bowdoinham Contradance, played many times, 1980s.
H:This was a tune played fairly frequently at the Bowdoinham dance. It's a
H:Scottish tune, possibly originally a pipe tune. This transcription is based on
H:a recording of Doug Protsik playing the tune for me on a piano.
N:From NH Country Dance (URL below), along with many New England, Canadian & Swedish
N:tunes, and resources for abc notation and New England traditional music and dance.
%
N: Note #1: To preserve formatting (font, spacing, etc.), use the
N: file header at the URL below; just follow accompanying instructions.
%
N: Note #2: This abc code is optimized for use with abcm2ps, which is used by
N: EasyABC and other abc apps. To use abc2svg for display or printing look to see if there
N: is a file optimized for abc2svg. If not you may need to adjust the spacing in places.
%
Z:abc-transcription Peter Yarensky. I rely heavily on careful listening to the
Z:named sources aided by software to hear details. While not perfect, known
Z:substantial differences from other written sources receive careful attention.
Z:abc-copyright Peter Yarensky. You may reproduce this tune freely but
Z:please include the entire abc file including all the notes.
%%writefields HQSD
F:Tunes Home Page - https://fiddle-tunes.nhcountrydance.com/
F:abc Header & its Usage - https://fiddle-tunes.nhcountrydance.com/header-page/
M:6/8
L:1/8
R:Jig
G:Jigs
N: Tune Tags ~ Jig, New England Repertoire
K:Dmaj
"A7" a2g |\
"D" f2d dfd      | "G" B2d "D" A2d  | "D" f2d faf      | "D" d3- def  |\
"A7" g2e efe     | "A7" c2e e2d     | "A7" c2B c2B     | "A7" Az2 a2g |
"D" f2d dfd      | "G" B2d "D" A2d  | "D" f2d faf      | "D" dz2 f2g  |\
"D" afa "A7" geg | "D" fdf "A7" ece | "D" def "A7" ABc | "D" dz2      ||
"A7" a2g |\
"D" f2a aba      | "D" f2a a2g      | "D" f2d faf      | "D" d3- def  |\
"A7" g2e efe     | "A7" c2e e2d     | "A7" c2B c2B     | "A7" Az2 a2g |
"D" f2d dfd      | "G" B2d "D" A2d  | "D" f2d faf      | "D" dz2 f2g  |\
"D" afa "A7" geg | "D" fdf "A7" ece | "D" def "A7" ABc | "D" dz2      |]

